X: 523
T: Done Gone
B: jims roots
M:4/4
L:1/8
Q: 1/4=100
K:Bb
V:1 
%S:Matt Brown
Bc | "Bb"dBFD B,DFG | "Gm"Bcdf"Eb"g2f2 | "Bb"bgfb "Gm"gfdg | "C"fdBd"F"c2Bc |
"Bb"dBFD B,DFG | "Gm"Bcdf"Eb"g2f2 | "Bb"bgfb "Gm"gfdg | [1 "F"fdcd"Bb"B2 :|
GDGA GFDF | GABcd4 | "D"D^FAd cAFD | [1 "Gm"G6 D=F :| [2 "Gm"G2^F2 "F" =F4 ||
V:2 "F"fdcd"Bb"B4 |: [P:B Part
"Gm"GFGA GFDF | GABcd4 | "D"D^FAd cAdc | "Gm"BGBc d4 |
% abcbook-tune_id 6298c245d46563f58d214e58


% abcbook-boost 0
% abcbook-tablature 
% abcbook-transpose 
% abcbook-lastupdated 1654178374008
% abcbook-soundfonts 
% abcbook-repeats 1


